X: 100064
M: 6/8
L: 1/8
K: D
uA |\
(F/G/)AF (.D2.A) | ded dAG | (F/G/)AF (.D2.f) | eEE (.E2.G) |\
(F/G/)AF (.D2.A) | ded dAG | FdF Edc | dAF D2 :|
|: ug |\
(f/g/)af (.d2.f) | aba afd | (f/g/)af (.d2.f) | eEE (.E2.g) |\
(f/g/)af dfa | bag fed | (B/c/)dB AFd | AFD D2 :|
|: uA |\
|: uf |\
dfa dfa | afd afd | dfa def | eEE (.E2.f) |\
dfa dfa | bag fed | (B/c/)dB AFd | AFD D2 :|


